X:18219
T:Vaqueira
R:Vaqueirada
C:Tradicional
S:Msica Tradicional Asturiana, (C) Tello & Tito. Asturies, 2001.
S:http://pagina.de/MusTradAst <telloytito@asturies.org>
O:Somiedu
A:Asturies
B:Musicologa Asturiana - La Cancin Tradicional, Modesto Gonzlez Cobas
Z:La Cancin Tradicional, M.G.C.
M:6/8
L:1/8
Q:3/8=80
W:el seor cura del puerto
W:taba sentu nun pinietso
W:dixeros las vaqueirinas
W:de quin ser aquel ricietso eh!
K:G
|GGG GAB|c2 c-c3|GGG GAB|c2 B-B3|ccc cBA|BBA GGG-|GFB A A2|G6|
